static/img/icons/message-icon-error-face.svg

<svg xmlns="http://www.w3.org/2000/svg" width="30" height="30" viewBox="0 0 30 30"><path fill="#231F20" d="M8.37 10.643l2.898 2.898c.525.525 1.339-.289.814-.814L9.183 9.829c-.525-.526-1.339.288-.813.814z"/><path fill="#231F20" d="M9.183 13.541l2.898-2.898c.525-.525-.288-1.339-.813-.814L8.37 12.727c-.526.525.288 1.339.813.814zM17.919 10.643l2.898 2.898c.525.525 1.339-.289.813-.814l-2.898-2.898c-.525-.526-1.338.288-.813.814z"/><path fill="#231F20" d="M18.732 13.541l2.898-2.898c.525-.525-.288-1.339-.813-.814l-2.898 2.898c-.525.525.288 1.339.813.814zM16.365 18.463c-.081 1.439-2.264 1.439-2.345 0-.081-1.438 2.264-1.434 2.345 0 .027.492.795.494.767 0-.061-1.086-.868-1.82-1.94-1.875-1.069-.056-1.883.872-1.939 1.875-.061 1.083.96 1.825 1.939 1.876 1.07.056 1.883-.873 1.94-1.876.028-.494-.739-.492-.767 0z"/></svg>

<?xml version="1.0" encoding="utf-8"?>
<!-- Generator: Adobe Illustrator 16.0.0, SVG Export Plug-In . SVG Version: 6.00 Build 0)  -->
<!DOCTYPE svg PUBLIC "-//W3C//DTD SVG 1.1//EN" "http://www.w3.org/Graphics/SVG/1.1/DTD/svg11.dtd">
<svg version="1.1" id="Layer_1" xmlns="http://www.w3.org/2000/svg" xmlns:xlink="http://www.w3.org/1999/xlink" x="0px" y="0px"
	 width="30px" height="30px" viewBox="0 0 30 30" enable-background="new 0 0 30 30" xml:space="preserve">
<g>
	<g>
		<path fill="#231F20" d="M8.37,10.643c0.967,0.966,1.933,1.933,2.898,2.898c0.525,0.525,1.339-0.289,0.814-0.814
			c-0.967-0.966-1.933-1.933-2.899-2.898C8.658,9.303,7.844,10.117,8.37,10.643z"/>
	</g>
	<g>
		<path fill="#231F20" d="M9.183,13.541c0.967-0.966,1.933-1.933,2.898-2.898c0.525-0.525-0.288-1.339-0.813-0.814
			c-0.967,0.966-1.933,1.933-2.898,2.898C7.844,13.252,8.658,14.066,9.183,13.541z"/>
	</g>
	<g>
		<path fill="#231F20" d="M17.919,10.643c0.966,0.966,1.933,1.933,2.898,2.898c0.525,0.525,1.339-0.289,0.813-0.814
			c-0.966-0.966-1.932-1.933-2.898-2.898C18.207,9.303,17.394,10.117,17.919,10.643z"/>
	</g>
	<g>
		<path fill="#231F20" d="M18.732,13.541c0.967-0.966,1.933-1.933,2.898-2.898c0.525-0.525-0.288-1.339-0.813-0.814
			c-0.966,0.966-1.933,1.933-2.898,2.898C17.394,13.252,18.207,14.066,18.732,13.541z"/>
	</g>
	<g>
		<path fill="#231F20" d="M16.365,18.463c-0.081,1.439-2.264,1.439-2.345,0C13.939,17.025,16.284,17.029,16.365,18.463
			c0.027,0.492,0.795,0.494,0.767,0c-0.061-1.086-0.868-1.82-1.94-1.875c-1.069-0.056-1.883,0.872-1.939,1.875
			c-0.061,1.083,0.96,1.825,1.939,1.876c1.07,0.056,1.883-0.873,1.94-1.876C17.16,17.969,16.393,17.971,16.365,18.463z"/>
	</g>
</g>
</svg>
